src/assets/svg/instagram.svg

<?xml version="1.0" encoding="UTF-8"?>
<svg width="20px" height="20px" viewBox="0 0 20 20" version="1.1" xmlns="http://www.w3.org/2000/svg" xmlns:xlink="http://www.w3.org/1999/xlink">
    <!-- Generator: Sketch 50.2 (55047) - http://www.bohemiancoding.com/sketch -->
    <title>instagram</title>
    <desc>Created with Sketch.</desc>
    <defs></defs>
    <g id="Page-1" stroke="none" stroke-width="1" fill="none" fill-rule="evenodd">
        <g id="Artboard" transform="translate(-542.000000, -846.000000)" fill="#000000" fill-rule="nonzero">
            <g id="instagram" transform="translate(542.000000, 846.000000)">
                <path d="M13.3333333,10 C13.3333333,9.07986111 13.0078125,8.29427083 12.3567708,7.64322917 C11.7057292,6.9921875 10.9201389,6.66666667 10,6.66666667 C9.07986111,6.66666667 8.29427083,6.9921875 7.64322917,7.64322917 C6.9921875,8.29427083 6.66666667,9.07986111 6.66666667,10 C6.66666667,10.9201389 6.9921875,11.7057292 7.64322917,12.3567708 C8.29427083,13.0078125 9.07986111,13.3333333 10,13.3333333 C10.9201389,13.3333333 11.7057292,13.0078125 12.3567708,12.3567708 C13.0078125,11.7057292 13.3333333,10.9201389 13.3333333,10 Z M15.1302083,10 C15.1302083,11.4236111 14.6310764,12.6345486 13.6328125,13.6328125 C12.6345486,14.6310764 11.4236111,15.1302083 10,15.1302083 C8.57638889,15.1302083 7.36545139,14.6310764 6.3671875,13.6328125 C5.36892361,12.6345486 4.86979167,11.4236111 4.86979167,10 C4.86979167,8.57638889 5.36892361,7.36545139 6.3671875,6.3671875 C7.36545139,5.36892361 8.57638889,4.86979167 10,4.86979167 C11.4236111,4.86979167 12.6345486,5.36892361 13.6328125,6.3671875 C14.6310764,7.36545139 15.1302083,8.57638889 15.1302083,10 Z M16.5364583,4.66145833 C16.5364583,4.99131944 16.4192708,5.2734375 16.1848958,5.5078125 C15.9505208,5.7421875 15.6684028,5.859375 15.3385417,5.859375 C15.0086806,5.859375 14.7265625,5.7421875 14.4921875,5.5078125 C14.2578125,5.2734375 14.140625,4.99131944 14.140625,4.66145833 C14.140625,4.33159722 14.2578125,4.04947917 14.4921875,3.81510417 C14.7265625,3.58072917 15.0086806,3.46354167 15.3385417,3.46354167 C15.6684028,3.46354167 15.9505208,3.58072917 16.1848958,3.81510417 C16.4192708,4.04947917 16.5364583,4.33159722 16.5364583,4.66145833 Z M10,1.796875 C9.93923611,1.796875 9.60720486,1.79470486 9.00390625,1.79036458 C8.40060764,1.78602431 7.94270833,1.78602431 7.63020833,1.79036458 C7.31770833,1.79470486 6.89887153,1.80772569 6.37369792,1.82942708 C5.84852431,1.85112847 5.40147569,1.89453125 5.03255208,1.95963542 C4.66362847,2.02473958 4.35329861,2.10503472 4.1015625,2.20052083 C3.66753472,2.37413194 3.28559028,2.62586806 2.95572917,2.95572917 C2.62586806,3.28559028 2.37413194,3.66753472 2.20052083,4.1015625 C2.10503472,4.35329861 2.02473958,4.66362847 1.95963542,5.03255208 C1.89453125,5.40147569 1.85112847,5.84852431 1.82942708,6.37369792 C1.80772569,6.89887153 1.79470486,7.31770833 1.79036458,7.63020833 C1.78602431,7.94270833 1.78602431,8.40060764 1.79036458,9.00390625 C1.79470486,9.60720486 1.796875,9.93923611 1.796875,10 C1.796875,10.0607639 1.79470486,10.3927951 1.79036458,10.9960938 C1.78602431,11.5993924 1.78602431,12.0572917 1.79036458,12.3697917 C1.79470486,12.6822917 1.80772569,13.1011285 1.82942708,13.6263021 C1.85112847,14.1514757 1.89453125,14.5985243 1.95963542,14.9674479 C2.02473958,15.3363715 2.10503472,15.6467014 2.20052083,15.8984375 C2.37413194,16.3324653 2.62586806,16.7144097 2.95572917,17.0442708 C3.28559028,17.3741319 3.66753472,17.6258681 4.1015625,17.7994792 C4.35329861,17.8949653 4.66362847,17.9752604 5.03255208,18.0403646 C5.40147569,18.1054688 5.84852431,18.1488715 6.37369792,18.1705729 C6.89887153,18.1922743 7.31770833,18.2052951 7.63020833,18.2096354 C7.94270833,18.2139757 8.40060764,18.2139757 9.00390625,18.2096354 C9.60720486,18.2052951 9.93923611,18.203125 10,18.203125 C10.0607639,18.203125 10.3927951,18.2052951 10.9960938,18.2096354 C11.5993924,18.2139757 12.0572917,18.2139757 12.3697917,18.2096354 C12.6822917,18.2052951 13.1011285,18.1922743 13.6263021,18.1705729 C14.1514757,18.1488715 14.5985243,18.1054688 14.9674479,18.0403646 C15.3363715,17.9752604 15.6467014,17.8949653 15.8984375,17.7994792 C16.3324653,17.6258681 16.7144097,17.3741319 17.0442708,17.0442708 C17.3741319,16.7144097 17.6258681,16.3324653 17.7994792,15.8984375 C17.8949653,15.6467014 17.9752604,15.3363715 18.0403646,14.9674479 C18.1054688,14.5985243 18.1488715,14.1514757 18.1705729,13.6263021 C18.1922743,13.1011285 18.2052951,12.6822917 18.2096354,12.3697917 C18.2139757,12.0572917 18.2139757,11.5993924 18.2096354,10.9960938 C18.2052951,10.3927951 18.203125,10.0607639 18.203125,10 C18.203125,9.93923611 18.2052951,9.60720486 18.2096354,9.00390625 C18.2139757,8.40060764 18.2139757,7.94270833 18.2096354,7.63020833 C18.2052951,7.31770833 18.1922743,6.89887153 18.1705729,6.37369792 C18.1488715,5.84852431 18.1054688,5.40147569 18.0403646,5.03255208 C17.9752604,4.66362847 17.8949653,4.35329861 17.7994792,4.1015625 C17.6258681,3.66753472 17.3741319,3.28559028 17.0442708,2.95572917 C16.7144097,2.62586806 16.3324653,2.37413194 15.8984375,2.20052083 C15.6467014,2.10503472 15.3363715,2.02473958 14.9674479,1.95963542 C14.5985243,1.89453125 14.1514757,1.85112847 13.6263021,1.82942708 C13.1011285,1.80772569 12.6822917,1.79470486 12.3697917,1.79036458 C12.0572917,1.78602431 11.5993924,1.78602431 10.9960938,1.79036458 C10.3927951,1.79470486 10.0607639,1.796875 10,1.796875 Z M20,10 C20,11.9878472 19.9782986,13.3637153 19.9348958,14.1276042 C19.8480903,15.9331597 19.3098958,17.3307292 18.3203125,18.3203125 C17.3307292,19.3098958 15.9331597,19.8480903 14.1276042,19.9348958 C13.3637153,19.9782986 11.9878472,20 10,20 C8.01215278,20 6.63628472,19.9782986 5.87239583,19.9348958 C4.06684028,19.8480903 2.66927083,19.3098958 1.6796875,18.3203125 C0.690104167,17.3307292 0.151909722,15.9331597 0.0651041667,14.1276042 C0.0217013889,13.3637153 0,11.9878472 0,10 C0,8.01215278 0.0217013889,6.63628472 0.0651041667,5.87239583 C0.151909722,4.06684028 0.690104167,2.66927083 1.6796875,1.6796875 C2.66927083,0.690104167 4.06684028,0.151909722 5.87239583,0.0651041667 C6.63628472,0.0217013889 8.01215278,0 10,0 C11.9878472,0 13.3637153,0.0217013889 14.1276042,0.0651041667 C15.9331597,0.151909722 17.3307292,0.690104167 18.3203125,1.6796875 C19.3098958,2.66927083 19.8480903,4.06684028 19.9348958,5.87239583 C19.9782986,6.63628472 20,8.01215278 20,10 Z" id="Shape"></path>
            </g>
        </g>
    </g>
</svg>

<svg width="20" height="20" xmlns="http://www.w3.org/2000/svg"><path d="M13.333 10c0-.92-.325-1.706-.976-2.357A3.212 3.212 0 0 0 10 6.667c-.92 0-1.706.325-2.357.976A3.212 3.212 0 0 0 6.667 10c0 .92.325 1.706.976 2.357a3.212 3.212 0 0 0 2.357.976c.92 0 1.706-.325 2.357-.976A3.212 3.212 0 0 0 13.333 10zm1.797 0c0 1.424-.499 2.635-1.497 3.633-.998.998-2.21 1.497-3.633 1.497-1.424 0-2.635-.499-3.633-1.497C5.37 12.635 4.87 11.423 4.87 10c0-1.424.499-2.635 1.497-3.633C7.365 5.37 8.577 4.87 10 4.87c1.424 0 2.635.499 3.633 1.497.998.998 1.497 2.21 1.497 3.633zm1.406-5.339c0 .33-.117.612-.351.847a1.154 1.154 0 0 1-.846.351c-.33 0-.612-.117-.847-.351a1.154 1.154 0 0 1-.351-.847c0-.33.117-.612.351-.846.235-.234.517-.351.847-.351.33 0 .612.117.846.351.234.234.351.517.351.846zM10 1.797l-.996-.007a70.638 70.638 0 0 0-1.374 0c-.312.005-.731.018-1.256.04-.525.021-.973.065-1.341.13a5.22 5.22 0 0 0-.931.24 3.378 3.378 0 0 0-1.146.756c-.33.33-.582.712-.755 1.146a5.22 5.22 0 0 0-.241.93c-.065.37-.109.817-.13 1.342-.022.525-.035.944-.04 1.256-.004.313-.004.77 0 1.374l.007.996-.007.996a70.638 70.638 0 0 0 0 1.374c.005.312.018.731.04 1.256.021.525.065.973.13 1.341.065.37.145.68.24.931.174.434.426.816.756 1.146.33.33.712.582 1.146.755.251.096.562.176.93.241.37.065.817.109 1.342.13.525.022.944.035 1.256.04.313.004.77.004 1.374 0l.996-.007.996.007c.603.004 1.061.004 1.374 0 .312-.005.731-.018 1.256-.04.525-.021.973-.065 1.341-.13a5.22 5.22 0 0 0 .931-.24 3.378 3.378 0 0 0 1.146-.756c.33-.33.582-.712.755-1.146a5.22 5.22 0 0 0 .241-.93c.065-.37.109-.817.13-1.342.022-.525.035-.944.04-1.256.004-.313.004-.77 0-1.374a346.91 346.91 0 0 1-.007-.996l.007-.996c.004-.603.004-1.061 0-1.374a48.238 48.238 0 0 0-.04-1.256 10.319 10.319 0 0 0-.13-1.341 5.22 5.22 0 0 0-.24-.931 3.378 3.378 0 0 0-.756-1.146 3.378 3.378 0 0 0-1.146-.755 5.22 5.22 0 0 0-.93-.241 10.319 10.319 0 0 0-1.342-.13 48.238 48.238 0 0 0-1.256-.04c-.313-.004-.77-.004-1.374 0L10 1.797zM20 10c0 1.988-.022 3.364-.065 4.128-.087 1.805-.625 3.203-1.615 4.192-.99.99-2.387 1.528-4.192 1.615-.764.043-2.14.065-4.128.065s-3.364-.022-4.128-.065c-1.805-.087-3.203-.625-4.192-1.615-.99-.99-1.528-2.387-1.615-4.192C.022 13.364 0 11.988 0 10s.022-3.364.065-4.128C.152 4.067.69 2.67 1.68 1.68 2.67.69 4.067.152 5.872.065 6.636.022 8.012 0 10 0s3.364.022 4.128.065C15.933.152 17.33.69 18.32 1.68c.99.99 1.528 2.387 1.615 4.192.043.764.065 2.14.065 4.128z" fill="#000" fill-rule="nonzero"/></svg>
